X:1
T:Awa' Whigs Awa'
M:4/4
L:1/8
K:G
B-c| d4 d3 B| d6B-d| e4 e3 d| e6 g2| d2 B2 A3 G| G3 A B3 A| G2 E2 E2 ^D2|\
 E6B-c| d3 ed-ed-B|d-Bd-e d3 g| e3 ge-ge-d| e4 e2 g2| d2c-B A3 G| G3 A B2A-G|\
A-Bd-ed-BA-G| E4 E2||
